Newaita-dark/apps/64/media-optical-data-new.svg

<svg height="64pt" viewBox="0 0 64 64" width="64pt" xmlns="http://www.w3.org/2000/svg" xmlns:xlink="http://www.w3.org/1999/xlink"><linearGradient id="a"><stop offset="0" stop-opacity=".313726"/><stop offset=".222222" stop-opacity=".27451"/><stop offset="1" stop-opacity="0"/></linearGradient><radialGradient id="b" cx="450.908936" cy="189.579361" gradientTransform="matrix(.00000035 -.156265 -.281277 -.0000002 89.046304 127.190659)" gradientUnits="userSpaceOnUse" r="21.166656" xlink:href="#a"/><radialGradient id="c" cx="450.908936" cy="189.579361" gradientTransform="matrix(-.00000035 .156265 .281277 .0000002 -25.540237 -15.054964)" gradientUnits="userSpaceOnUse" r="21.166656" xlink:href="#a"/><radialGradient id="d" cx="450.908936" cy="189.579361" gradientTransform="matrix(-.00000035 -.156265 .281277 -.0000002 -25.540237 127.190659)" gradientUnits="userSpaceOnUse" r="21.166656" xlink:href="#a"/><radialGradient id="e" cx="450.908936" cy="189.579361" gradientTransform="matrix(.00000035 .156265 -.281277 .0000002 89.0463 -15.054965)" gradientUnits="userSpaceOnUse" r="21.166656" xlink:href="#a"/><linearGradient id="f" gradientTransform="matrix(.0267201 0 0 .125012 24.930772 26.877567)" gradientUnits="userSpaceOnUse" x1="255.323059" x2="255.323044" y1="233.5" y2="254.666656"><stop offset="0" stop-opacity=".27451"/><stop offset="1" stop-opacity="0"/></linearGradient><linearGradient id="g" gradientUnits="userSpaceOnUse" x1="31.753048" x2="31.753048" y1="5.79220799994" y2="56.067868"><stop offset="0" stop-color="#e0e0e0"/><stop offset="1" stop-color="#bdbdbd"/></linearGradient><linearGradient id="h" gradientUnits="userSpaceOnUse" x1="31.753056" x2="31.753056" y1="56.06789790428" y2="43.49897990428"><stop offset="0" stop-color="#ff7043"/><stop offset="1" stop-color="#ff8a65"/></linearGradient><linearGradient id="i" gradientUnits="userSpaceOnUse" x1="960.000112" x2="960.000112" y1="1255.11822698163" y2="615.118112"><stop offset="0" stop-color="#f5f5f5"/><stop offset="1" stop-color="#e0e0e0"/></linearGradient><path d="m36.382812 56.066406h5.292969v-2.644531h-5.292969zm0 0" fill="url(#b)"/><path d="m27.121094 56.066406h-5.289063v2.648438h5.289063zm0 0" fill="url(#c)"/><path d="m27.121094 56.066406h-5.289063v-2.644531h5.289063zm0 0" fill="url(#d)"/><path d="m36.382812 56.066406h5.292969v2.648438h-5.292969zm0 0" fill="url(#e)"/><path d="m27.121094 55.40625h9.261718v3.308594h-9.261718zm0 0" fill="url(#f)"/><path d="m31.753906 5.792969c-13.925781 0-25.140625 11.210937-25.140625 25.136719 0 13.925781 11.214844 25.136718 25.140625 25.136718 13.925782 0 25.136719-11.210937 25.136719-25.136718 0-13.925782-11.210937-25.136719-25.136719-25.136719zm0 19.84375c2.929688 0 5.292969 2.363281 5.292969 5.292969 0 2.933593-2.363281 5.292968-5.292969 5.292968-2.933594 0-5.292968-2.359375-5.292968-5.292968 0-2.929688 2.359374-5.292969 5.292968-5.292969zm0 0" fill="url(#g)"/><path d="m31.753906 43.167969c-.414062 0-.828125.332031-1.324218.992187-1.652344 2.316406-2.707032 3.644532-2.644532 5.292969v5.292969c0 .730468.589844 1.320312 1.320313 1.320312h5.292969c.734374 0 1.324218-.589844 1.324218-1.320312v-5.292969c0-1.65625-.992187-2.976563-2.648437-5.292969-.496094-.660156-.90625-.992187-1.320313-.992187zm0 0" fill="url(#h)"/><path d="m31.753906 56.066406c-13.925781 0-25.140625-11.210937-25.140625-25.136718 0-.082032.003907-.164063.003907-.246094.128906 13.8125 11.292968 24.890625 25.136718 24.890625s25.003906-11.078125 25.136719-24.890625v.246094c0 13.925781-11.210937 25.136718-25.136719 25.136718zm0 0" fill-opacity=".196078"/><path d="m31.753906 5.792969c-13.925781 0-25.140625 11.210937-25.140625 25.136719 0 .082031.003907.164062.003907.246093.128906-13.8125 11.292968-24.890625 25.136718-24.890625s25.003906 11.078125 25.136719 24.890625c0-.082031 0-.164062 0-.246093 0-13.925782-11.210937-25.136719-25.136719-25.136719zm0 0" fill="#fff" fill-opacity=".588235"/><path d="m31.753906 5.605469c-14.027344 0-25.328125 11.296875-25.328125 25.324219 0 14.027343 11.300781 25.324218 25.328125 25.324218s25.324219-11.296875 25.324219-25.324218c0-14.027344-11.296875-25.324219-25.324219-25.324219zm0 .375c13.824219 0 24.949219 11.125 24.949219 24.949219 0 13.824218-11.125 24.949218-24.949219 24.949218-13.828125 0-24.953125-11.125-24.953125-24.949218 0-13.824219 11.125-24.949219 24.953125-24.949219zm0 0" fill="#212121"/><path d="m14.847656 14.023438c-1.410156 1.441406-2.632812 3.054687-3.640625 4.800781-1.007812 1.746093-1.792969 3.609375-2.335937 5.550781l5.355468 1.4375c.820313-2.964844 2.386719-5.675781 4.542969-7.871094zm4.914063 4.914062c-1.980469 2.023438-3.414063 4.511719-4.171875 7.238281l11.40625 3.058594c.222656-.722656.605468-1.386719 1.117187-1.941406zm16.792969 13.226562c-.109376.359376-.261719.707032-.453126 1.035157-.1875.324219-.410156.628906-.667968.90625l8.359375 8.359375c1.980469-2.023438 3.414062-4.515625 4.167969-7.246094zm12.773437 3.421876c-.824219 2.964843-2.386719 5.675781-4.542969 7.875l3.917969 3.914062c1.410156-1.441406 2.632813-3.054688 3.640625-4.800781 1.011719-1.746094 1.792969-3.609375 2.335938-5.550781zm0 0" fill="#fff" fill-opacity=".588235"/><path d="m960.026483 615.059407c-177.266546 0-320.048194 142.781648-320.048194 320.048194s142.781648 320.048194 320.048194 320.048194 319.930095-142.781648 319.930095-320.048194-142.663549-320.048194-319.930095-320.048194zm0 160.024097c88.574223 0 160.024097 71.449874 160.024097 160.024097 0 88.692323-71.449874 160.024097-160.024097 160.024097-88.692323 0-160.024097-71.331774-160.024097-160.024097 0-88.574223 71.331774-160.024097 160.024097-160.024097zm0 0" fill="url(#i)" stroke="#333" stroke-linecap="round" stroke-width="11.338583" transform="scale(.0330761)"/><path d="m31.753906 43.167969c-.414062 0-.828125.332031-1.324218.992187-1.652344 2.316406-2.707032 3.644532-2.644532 5.292969v.742187c.046875-1.535156 1.074219-2.847656 2.644532-5.042968.496093-.660156.910156-.992188 1.324218-.992188.414063 0 .824219.332032 1.320313.992188 1.65625 2.316406 2.648437 3.636718 2.648437 5.292968v-.992187c0-1.65625-.992187-2.976563-2.648437-5.292969-.496094-.660156-.90625-.992187-1.320313-.992187zm0 0" fill="#fff" fill-opacity=".392157"/><path d="m27.785156 49.203125c-.003906.082031-.003906.164063 0 .25zm0 4.496094v1.046875c0 .730468.589844 1.320312 1.320313 1.320312h5.292969c.734374 0 1.324218-.589844 1.324218-1.320312v-1.046875c0 .734375-.589844 1.324219-1.324218 1.324219h-5.292969c-.730469 0-1.320313-.589844-1.320313-1.324219zm0 0" fill-opacity=".235294"/><path d="m31.753906 42.175781c-.414062 0-.828125.332031-1.324218.992188-1.652344 2.316406-2.707032 3.644531-2.644532 5.292969v.742187c.046875-1.535156 1.074219-2.847656 2.644532-5.042969.496093-.660156.910156-.992187 1.324218-.992187.414063 0 .824219.332031 1.320313.992187 1.65625 2.316406 2.648437 3.636719 2.648437 5.292969v-.992187c0-1.65625-.992187-2.976563-2.648437-5.292969-.496094-.660157-.90625-.992188-1.320313-.992188zm0 0" fill-opacity=".235294"/><path d="m960.026483 1305.111657c-12.51849 0-25.036981 10.038412-40.035549 29.997137-49.955862 70.032686-81.842583 110.186334-79.952999 160.024097v160.024097c0 22.084506 17.832943 39.91745 39.91745 39.91745h160.024097c22.202605 0 40.035549-17.832944 40.035549-39.91745v-160.024097c0-50.073961-29.997137-89.991411-80.071098-160.024097-14.998569-19.958725-27.39896-29.997137-39.91745-29.997137zm0 0" fill="none" stroke="#212121" stroke-linecap="square" stroke-linejoin="bevel" stroke-width="11.338583" transform="scale(.0330761)"/></svg>

<?xml version="1.0" encoding="UTF-8"?>
<svg xmlns="http://www.w3.org/2000/svg" xmlns:xlink="http://www.w3.org/1999/xlink" width="64pt" height="64pt" viewBox="0 0 64 64" version="1.1">
<defs>
<radialGradient id="radial0" gradientUnits="userSpaceOnUse" cx="450.908936" cy="189.579361" fx="450.908936" fy="189.579361" r="21.166656" gradientTransform="matrix(0.000000348341,-0.156265,-0.281277,-0.000000203077,89.046304,127.190659)">
<stop offset="0" style="stop-color:rgb(0%,0%,0%);stop-opacity:0.313726;"/>
<stop offset="0.222222" style="stop-color:rgb(0%,0%,0%);stop-opacity:0.27451;"/>
<stop offset="1" style="stop-color:rgb(0%,0%,0%);stop-opacity:0;"/>
</radialGradient>
<radialGradient id="radial1" gradientUnits="userSpaceOnUse" cx="450.908936" cy="189.579361" fx="450.908936" fy="189.579361" r="21.166656" gradientTransform="matrix(-0.000000348341,0.156265,0.281277,0.000000203077,-25.540237,-15.054964)">
<stop offset="0" style="stop-color:rgb(0%,0%,0%);stop-opacity:0.313726;"/>
<stop offset="0.222222" style="stop-color:rgb(0%,0%,0%);stop-opacity:0.27451;"/>
<stop offset="1" style="stop-color:rgb(0%,0%,0%);stop-opacity:0;"/>
</radialGradient>
<radialGradient id="radial2" gradientUnits="userSpaceOnUse" cx="450.908936" cy="189.579361" fx="450.908936" fy="189.579361" r="21.166656" gradientTransform="matrix(-0.000000348341,-0.156265,0.281277,-0.000000203077,-25.540237,127.190659)">
<stop offset="0" style="stop-color:rgb(0%,0%,0%);stop-opacity:0.313726;"/>
<stop offset="0.222222" style="stop-color:rgb(0%,0%,0%);stop-opacity:0.27451;"/>
<stop offset="1" style="stop-color:rgb(0%,0%,0%);stop-opacity:0;"/>
</radialGradient>
<radialGradient id="radial3" gradientUnits="userSpaceOnUse" cx="450.908936" cy="189.579361" fx="450.908936" fy="189.579361" r="21.166656" gradientTransform="matrix(0.000000348341,0.156265,-0.281277,0.000000203077,89.0463,-15.054965)">
<stop offset="0" style="stop-color:rgb(0%,0%,0%);stop-opacity:0.313726;"/>
<stop offset="0.222222" style="stop-color:rgb(0%,0%,0%);stop-opacity:0.27451;"/>
<stop offset="1" style="stop-color:rgb(0%,0%,0%);stop-opacity:0;"/>
</radialGradient>
<linearGradient id="linear0" gradientUnits="userSpaceOnUse" x1="255.323059" y1="233.5" x2="255.323044" y2="254.666656" gradientTransform="matrix(0.0267201,0,0,0.125012,24.930772,26.877567)">
<stop offset="0" style="stop-color:rgb(0%,0%,0%);stop-opacity:0.27451;"/>
<stop offset="1" style="stop-color:rgb(0%,0%,0%);stop-opacity:0;"/>
</linearGradient>
<linearGradient id="linear1" gradientUnits="userSpaceOnUse" x1="254" y1="-168.666672" x2="254" y2="233.5" gradientTransform="matrix(0.125012,0,0,0.125012,0,26.877566)">
<stop offset="0" style="stop-color:rgb(87.843138%,87.843138%,87.843138%);stop-opacity:1;"/>
<stop offset="1" style="stop-color:rgb(74.117649%,74.117649%,74.117649%);stop-opacity:1;"/>
</linearGradient>
<linearGradient id="linear2" gradientUnits="userSpaceOnUse" x1="960" y1="1695.118164" x2="960" y2="1315.118164" gradientTransform="matrix(0.0330761,0,0,0.0330761,0,0)">
<stop offset="0" style="stop-color:rgb(100%,43.921569%,26.274511%);stop-opacity:1;"/>
<stop offset="1" style="stop-color:rgb(100%,54.11765%,39.607844%);stop-opacity:1;"/>
</linearGradient>
<linearGradient id="linear3" gradientUnits="userSpaceOnUse" x1="254" y1="117.083344" x2="254" y2="-52.25" gradientTransform="matrix(3.779528,0,0,3.779528,0,812.59845)">
<stop offset="0" style="stop-color:rgb(96.078432%,96.078432%,96.078432%);stop-opacity:1;"/>
<stop offset="1" style="stop-color:rgb(87.843138%,87.843138%,87.843138%);stop-opacity:1;"/>
</linearGradient>
</defs>
<g id="surface1">
<path style=" stroke:none;fill-rule:nonzero;fill:url(#radial0);" d="M 36.382812 56.066406 L 41.675781 56.066406 L 41.675781 53.421875 L 36.382812 53.421875 Z M 36.382812 56.066406 "/>
<path style=" stroke:none;fill-rule:nonzero;fill:url(#radial1);" d="M 27.121094 56.066406 L 21.832031 56.066406 L 21.832031 58.714844 L 27.121094 58.714844 Z M 27.121094 56.066406 "/>
<path style=" stroke:none;fill-rule:nonzero;fill:url(#radial2);" d="M 27.121094 56.066406 L 21.832031 56.066406 L 21.832031 53.421875 L 27.121094 53.421875 Z M 27.121094 56.066406 "/>
<path style=" stroke:none;fill-rule:nonzero;fill:url(#radial3);" d="M 36.382812 56.066406 L 41.675781 56.066406 L 41.675781 58.714844 L 36.382812 58.714844 Z M 36.382812 56.066406 "/>
<path style=" stroke:none;fill-rule:nonzero;fill:url(#linear0);" d="M 27.121094 55.40625 L 36.382812 55.40625 L 36.382812 58.714844 L 27.121094 58.714844 Z M 27.121094 55.40625 "/>
<path style=" stroke:none;fill-rule:nonzero;fill:url(#linear1);" d="M 31.753906 5.792969 C 17.828125 5.792969 6.613281 17.003906 6.613281 30.929688 C 6.613281 44.855469 17.828125 56.066406 31.753906 56.066406 C 45.679688 56.066406 56.890625 44.855469 56.890625 30.929688 C 56.890625 17.003906 45.679688 5.792969 31.753906 5.792969 Z M 31.753906 25.636719 C 34.683594 25.636719 37.046875 28 37.046875 30.929688 C 37.046875 33.863281 34.683594 36.222656 31.753906 36.222656 C 28.820312 36.222656 26.460938 33.863281 26.460938 30.929688 C 26.460938 28 28.820312 25.636719 31.753906 25.636719 Z M 31.753906 25.636719 "/>
<path style=" stroke:none;fill-rule:nonzero;fill:url(#linear2);" d="M 31.753906 43.167969 C 31.339844 43.167969 30.925781 43.5 30.429688 44.160156 C 28.777344 46.476562 27.722656 47.804688 27.785156 49.453125 L 27.785156 54.746094 C 27.785156 55.476562 28.375 56.066406 29.105469 56.066406 L 34.398438 56.066406 C 35.132812 56.066406 35.722656 55.476562 35.722656 54.746094 L 35.722656 49.453125 C 35.722656 47.796875 34.730469 46.476562 33.074219 44.160156 C 32.578125 43.5 32.167969 43.167969 31.753906 43.167969 Z M 31.753906 43.167969 "/>
<path style=" stroke:none;fill-rule:nonzero;fill:rgb(0%,0%,0%);fill-opacity:0.196078;" d="M 31.753906 56.066406 C 17.828125 56.066406 6.613281 44.855469 6.613281 30.929688 C 6.613281 30.847656 6.617188 30.765625 6.617188 30.683594 C 6.746094 44.496094 17.910156 55.574219 31.753906 55.574219 C 45.597656 55.574219 56.757812 44.496094 56.890625 30.683594 C 56.890625 30.765625 56.890625 30.847656 56.890625 30.929688 C 56.890625 44.855469 45.679688 56.066406 31.753906 56.066406 Z M 31.753906 56.066406 "/>
<path style=" stroke:none;fill-rule:nonzero;fill:rgb(100%,100%,100%);fill-opacity:0.588235;" d="M 31.753906 5.792969 C 17.828125 5.792969 6.613281 17.003906 6.613281 30.929688 C 6.613281 31.011719 6.617188 31.09375 6.617188 31.175781 C 6.746094 17.363281 17.910156 6.285156 31.753906 6.285156 C 45.597656 6.285156 56.757812 17.363281 56.890625 31.175781 C 56.890625 31.09375 56.890625 31.011719 56.890625 30.929688 C 56.890625 17.003906 45.679688 5.792969 31.753906 5.792969 Z M 31.753906 5.792969 "/>
<path style=" stroke:none;fill-rule:nonzero;fill:rgb(12.941177%,12.941177%,12.941177%);fill-opacity:1;" d="M 31.753906 5.605469 C 17.726562 5.605469 6.425781 16.902344 6.425781 30.929688 C 6.425781 44.957031 17.726562 56.253906 31.753906 56.253906 C 45.78125 56.253906 57.078125 44.957031 57.078125 30.929688 C 57.078125 16.902344 45.78125 5.605469 31.753906 5.605469 Z M 31.753906 5.980469 C 45.578125 5.980469 56.703125 17.105469 56.703125 30.929688 C 56.703125 44.753906 45.578125 55.878906 31.753906 55.878906 C 17.925781 55.878906 6.800781 44.753906 6.800781 30.929688 C 6.800781 17.105469 17.925781 5.980469 31.753906 5.980469 Z M 31.753906 5.980469 "/>
<path style=" stroke:none;fill-rule:nonzero;fill:rgb(100%,100%,100%);fill-opacity:0.588235;" d="M 14.847656 14.023438 C 13.4375 15.464844 12.214844 17.078125 11.207031 18.824219 C 10.199219 20.570312 9.414062 22.433594 8.871094 24.375 L 14.226562 25.8125 C 15.046875 22.847656 16.613281 20.136719 18.769531 17.941406 Z M 19.761719 18.9375 C 17.78125 20.960938 16.347656 23.449219 15.589844 26.175781 L 26.996094 29.234375 C 27.21875 28.511719 27.601562 27.847656 28.113281 27.292969 Z M 36.554688 32.164062 C 36.445312 32.523438 36.292969 32.871094 36.101562 33.199219 C 35.914062 33.523438 35.691406 33.828125 35.433594 34.105469 L 43.792969 42.464844 C 45.773438 40.441406 47.207031 37.949219 47.960938 35.21875 Z M 49.328125 35.585938 C 48.503906 38.550781 46.941406 41.261719 44.785156 43.460938 L 48.703125 47.375 C 50.113281 45.933594 51.335938 44.320312 52.34375 42.574219 C 53.355469 40.828125 54.136719 38.964844 54.679688 37.023438 Z M 49.328125 35.585938 "/>
<path style="fill-rule:nonzero;fill:url(#linear3);stroke-width:11.338583;stroke-linecap:round;stroke-linejoin:miter;stroke:rgb(20%,20%,20%);stroke-opacity:1;stroke-miterlimit:4;" d="M 960.026483 615.059407 C 782.759937 615.059407 639.978289 757.841055 639.978289 935.107601 C 639.978289 1112.374147 782.759937 1255.155795 960.026483 1255.155795 C 1137.293029 1255.155795 1279.956578 1112.374147 1279.956578 935.107601 C 1279.956578 757.841055 1137.293029 615.059407 960.026483 615.059407 Z M 960.026483 775.083504 C 1048.600706 775.083504 1120.05058 846.533378 1120.05058 935.107601 C 1120.05058 1023.799924 1048.600706 1095.131698 960.026483 1095.131698 C 871.33416 1095.131698 800.002386 1023.799924 800.002386 935.107601 C 800.002386 846.533378 871.33416 775.083504 960.026483 775.083504 Z M 960.026483 775.083504 " transform="matrix(0.0330761,0,0,0.0330761,0,0)"/>
<path style=" stroke:none;fill-rule:nonzero;fill:rgb(100%,100%,100%);fill-opacity:0.392157;" d="M 31.753906 43.167969 C 31.339844 43.167969 30.925781 43.5 30.429688 44.160156 C 28.777344 46.476562 27.722656 47.804688 27.785156 49.453125 L 27.785156 50.195312 C 27.832031 48.660156 28.859375 47.347656 30.429688 45.152344 C 30.925781 44.492188 31.339844 44.160156 31.753906 44.160156 C 32.167969 44.160156 32.578125 44.492188 33.074219 45.152344 C 34.730469 47.46875 35.722656 48.789062 35.722656 50.445312 L 35.722656 49.453125 C 35.722656 47.796875 34.730469 46.476562 33.074219 44.160156 C 32.578125 43.5 32.167969 43.167969 31.753906 43.167969 Z M 31.753906 43.167969 "/>
<path style=" stroke:none;fill-rule:nonzero;fill:rgb(0%,0%,0%);fill-opacity:0.235294;" d="M 27.785156 49.203125 C 27.78125 49.285156 27.78125 49.367188 27.785156 49.453125 Z M 27.785156 53.699219 L 27.785156 54.746094 C 27.785156 55.476562 28.375 56.066406 29.105469 56.066406 L 34.398438 56.066406 C 35.132812 56.066406 35.722656 55.476562 35.722656 54.746094 L 35.722656 53.699219 C 35.722656 54.433594 35.132812 55.023438 34.398438 55.023438 L 29.105469 55.023438 C 28.375 55.023438 27.785156 54.433594 27.785156 53.699219 Z M 27.785156 53.699219 "/>
<path style=" stroke:none;fill-rule:nonzero;fill:rgb(0%,0%,0%);fill-opacity:0.235294;" d="M 31.753906 42.175781 C 31.339844 42.175781 30.925781 42.507812 30.429688 43.167969 C 28.777344 45.484375 27.722656 46.8125 27.785156 48.460938 L 27.785156 49.203125 C 27.832031 47.667969 28.859375 46.355469 30.429688 44.160156 C 30.925781 43.5 31.339844 43.167969 31.753906 43.167969 C 32.167969 43.167969 32.578125 43.5 33.074219 44.160156 C 34.730469 46.476562 35.722656 47.796875 35.722656 49.453125 L 35.722656 48.460938 C 35.722656 46.804688 34.730469 45.484375 33.074219 43.167969 C 32.578125 42.507812 32.167969 42.175781 31.753906 42.175781 Z M 31.753906 42.175781 "/>
<path style="fill:none;stroke-width:11.338583;stroke-linecap:square;stroke-linejoin:bevel;stroke:rgb(12.941177%,12.941177%,12.941177%);stroke-opacity:1;stroke-miterlimit:4;" d="M 960.026483 1305.111657 C 947.507993 1305.111657 934.989502 1315.150069 919.990934 1335.108794 C 870.035072 1405.14148 838.148351 1445.295128 840.037935 1495.132891 L 840.037935 1655.156988 C 840.037935 1677.241494 857.870878 1695.074438 879.955385 1695.074438 L 1039.979482 1695.074438 C 1062.182087 1695.074438 1080.015031 1677.241494 1080.015031 1655.156988 L 1080.015031 1495.132891 C 1080.015031 1445.05893 1050.017894 1405.14148 999.943933 1335.108794 C 984.945364 1315.150069 972.544973 1305.111657 960.026483 1305.111657 Z M 960.026483 1305.111657 " transform="matrix(0.0330761,0,0,0.0330761,0,0)"/>
</g>
</svg>
